img/comment.svg

<svg width="18" height="18" viewBox="0 0 18 18" fill="none" xmlns="http://www.w3.org/2000/svg">
<path d="M0 18V2C0 0.89543 0.89543 0 2 0H16C17.1046 0 18 0.89543 18 2V12C18 13.1046 17.1046 14 16 14H6C5.56713 13.9992 5.14582 14.1396 4.8 14.4L0 18ZM2 2V14L4.134 12.4C4.47964 12.1393 4.90107 11.9988 5.334 12H16V2H2Z" fill="#2E3A59" fill-opacity="0.43"/>
</svg>

<svg width="18" height="18" fill="none" xmlns="http://www.w3.org/2000/svg"><path d="M0 18V2a2 2 0 0 1 2-2h14a2 2 0 0 1 2 2v10a2 2 0 0 1-2 2H6c-.433 0-.854.14-1.2.4L0 18ZM2 2v12l2.134-1.6c.346-.26.767-.401 1.2-.4H16V2H2Z" fill="#2E3A59" fill-opacity=".43"/></svg>
